assets/images/img_friends_onprimary.svg

<svg width="193" height="38" viewBox="0 0 193 38" fill="none" xmlns="http://www.w3.org/2000/svg">
<path d="M11.267 24.5794L11.4663 35.2355C11.4995 36.2072 11.35 36.8272 11.0178 37.0952C10.7188 37.3633 10.2537 37.4974 9.62245 37.4974H2.49622C1.7321 37.4974 1.21715 37.3466 0.951372 37.045C0.685592 36.7434 0.536091 36.1067 0.502868 35.1349L0.00453033 3.16667C-0.0286921 2.19489 0.120809 1.52469 0.453034 1.15609C0.818482 0.753969 1.4331 0.55291 2.29688 0.55291H21.9812C22.6789 0.55291 23.1938 0.686949 23.5261 0.955027C23.8583 1.22311 24.0244 1.709 24.0244 2.4127V8.84656C24.0244 9.51676 23.8583 10.0026 23.5261 10.3042C23.1938 10.5723 22.6789 10.7064 21.9812 10.7064H11.0178L11.0676 14.9286H20.237C20.9347 14.9286 21.4497 15.0626 21.7819 15.3307C22.1141 15.5988 22.2802 16.0847 22.2802 16.7884V22.7196C22.2802 23.4233 22.1141 23.9092 21.7819 24.1773C21.4497 24.4453 20.9347 24.5794 20.237 24.5794H11.267Z" fill="#222222"/>
<path d="M38.3668 17.5423C40.4598 17.4083 41.9382 17.0229 42.802 16.3862C43.6658 15.7496 44.0977 14.6773 44.0977 13.1693C44.0977 12.3316 43.9316 11.6446 43.5994 11.1085C43.3004 10.5388 42.8851 10.1032 42.3535 9.80159C41.822 9.53351 41.1907 9.38272 40.4598 9.34921C39.7622 9.3157 39.0146 9.36596 38.2173 9.5L38.3668 17.5423ZM27.0047 4.8254C26.9715 4.1552 26.9549 3.61905 26.9549 3.21693C26.9881 2.78131 27.0878 2.42945 27.2539 2.16138C27.3868 1.92681 27.6359 1.74251 28.0014 1.60847C28.4001 1.44092 28.9482 1.25661 29.6459 1.05555C31.0745 0.686949 32.6691 0.402118 34.4299 0.20106C36.224 3.57628e-07 38.0346 -0.050265 39.8618 0.0502648C41.6891 0.150795 43.4665 0.452382 45.194 0.955027C46.9216 1.42416 48.4665 2.12787 49.8286 3.06614C51.1575 4.03792 52.2206 5.27778 53.0179 6.78571C53.8485 8.29365 54.2638 10.1367 54.2638 12.3148C54.2638 13.9903 54.0977 15.4647 53.7654 16.7381C53.4332 17.978 52.9847 19.067 52.4199 20.0053C51.8219 20.9436 51.1409 21.7646 50.3768 22.4683C49.6126 23.172 48.7821 23.7919 47.8851 24.328L52.8186 32.1693C53.317 33.0071 53.4498 33.6772 53.2173 34.1799C52.9847 34.649 52.5694 35.0009 51.9714 35.2355L46.7389 37.1958C45.8087 37.5644 45.111 37.6146 44.6459 37.3466C44.214 37.112 43.8319 36.7099 43.4997 36.1402L38.616 27.1931V35.2355C38.616 36.1067 38.4831 36.6931 38.2173 36.9947C37.9515 37.3298 37.4532 37.4974 36.7223 37.4974H29.9449C29.2472 37.4974 28.7655 37.3298 28.4997 36.9947C28.2339 36.6931 28.0844 36.1067 28.0512 35.2355L27.0047 4.8254Z" fill="#222222"/>
<path d="M58.1068 2.81482C58.1068 1.94356 58.2397 1.35714 58.5055 1.05555C58.8045 0.720458 59.3028 0.55291 60.0005 0.55291H67.1766C67.9075 0.55291 68.3892 0.720458 68.6218 1.05555C68.8875 1.35714 69.037 1.94356 69.0703 2.81482L69.5686 35.2355C69.6018 36.1067 69.4689 36.6931 69.1699 36.9947C68.9042 37.3298 68.4058 37.4974 67.6749 37.4974H60.4988C59.8012 37.4974 59.3195 37.3298 59.0537 36.9947C58.7879 36.6931 58.6384 36.1067 58.6052 35.2355L58.1068 2.81482Z" fill="#222222"/>
<path d="M84.808 23.8254L84.9077 27.3439H94.4758C95.1734 27.3439 95.6884 27.4947 96.0206 27.7963C96.3528 28.0644 96.519 28.5335 96.519 29.2037V35.5873C96.519 36.291 96.3528 36.7769 96.0206 37.045C95.6884 37.3466 95.1734 37.4974 94.4758 37.4974H76.2864C75.4226 37.4974 74.8412 37.2963 74.5422 36.8942C74.2432 36.5256 74.0771 35.8386 74.0439 34.8333L73.5954 3.16667C73.5622 2.19489 73.7117 1.52469 74.0439 1.15609C74.4094 0.753969 75.024 0.55291 75.8878 0.55291H96.0704C96.7681 0.55291 97.2831 0.686949 97.6153 0.955027C97.9475 1.22311 98.1136 1.709 98.1136 2.4127V8.84656C98.1136 9.51676 97.9475 10.0026 97.6153 10.3042C97.2831 10.5723 96.7681 10.7064 96.0704 10.7064H84.5588L84.6087 13.672H94.3263C95.0239 13.672 95.5389 13.806 95.8711 14.0741C96.2033 14.3422 96.3695 14.828 96.3695 15.5317V21.9656C96.3695 22.6693 96.2033 23.1552 95.8711 23.4233C95.5389 23.6914 95.0239 23.8254 94.3263 23.8254H84.808Z" fill="#222222"/>
<path d="M112.98 20.6085L113.229 35.2355C113.262 36.0397 113.146 36.6093 112.88 36.9444C112.647 37.3131 112.132 37.4974 111.335 37.4974H103.96C103.129 37.4974 102.598 37.3131 102.365 36.9444C102.166 36.6093 102.049 36.0397 102.016 35.2355L101.518 3.16667C101.485 2.19489 101.634 1.52469 101.966 1.15609C102.332 0.753969 102.946 0.55291 103.81 0.55291H109.94C110.936 0.55291 111.618 0.653439 111.983 0.854496C112.382 1.02205 112.73 1.44092 113.03 2.11111L120.704 17.8439V3.16667C120.704 2.19489 120.87 1.52469 121.202 1.15609C121.534 0.753969 122.132 0.55291 122.996 0.55291H129.126C129.99 0.55291 130.588 0.753969 130.92 1.15609C131.252 1.52469 131.418 2.19489 131.418 3.16667V34.8333C131.418 35.8386 131.252 36.5256 130.92 36.8942C130.621 37.2963 130.039 37.4974 129.176 37.4974H124.441C123.478 37.4974 122.747 37.3131 122.249 36.9444C121.75 36.5758 121.252 35.9392 120.754 35.0344L112.98 20.6085Z" fill="#222222"/>
<path d="M136.137 3.31746C136.137 2.34568 136.286 1.69224 136.585 1.35714C136.884 0.988536 137.599 0.770723 138.728 0.703704C140.722 0.569665 142.731 0.552911 144.758 0.653441C146.818 0.753969 148.795 1.02205 150.688 1.45767C152.582 1.8933 154.359 2.52998 156.02 3.36772C157.682 4.20547 159.127 5.29453 160.356 6.63492C161.585 7.97531 162.549 9.60053 163.246 11.5106C163.977 13.4206 164.343 15.6658 164.343 18.246C164.343 21.3959 163.778 24.1773 162.648 26.59C161.519 28.9691 159.874 30.963 157.715 32.5714C155.522 34.1799 152.831 35.3862 149.642 36.1905C146.452 37.0282 142.798 37.4471 138.678 37.4471C137.25 37.4471 136.535 36.6429 136.535 35.0344L136.137 3.31746ZM147.25 26.6402C148.18 26.4056 149.027 26.1208 149.791 25.7857C150.555 25.4171 151.203 24.9145 151.735 24.2778C152.266 23.6746 152.682 22.8871 152.981 21.9153C153.28 20.9436 153.429 19.7037 153.429 18.1958C153.429 16.9224 153.263 15.8166 152.931 14.8783C152.599 13.94 152.133 13.1693 151.535 12.5661C150.937 11.963 150.24 11.5273 149.442 11.2593C148.645 10.9577 147.781 10.8404 146.851 10.9074L147.25 26.6402Z" fill="#222222"/>
<path d="M171.289 26.4392C171.854 26.6402 172.468 26.8413 173.133 27.0423C173.831 27.2434 174.545 27.4277 175.276 27.5952C176.007 27.7628 176.721 27.8968 177.419 27.9974C178.15 28.0979 178.831 28.1482 179.462 28.1482C180.126 28.1482 180.641 28.0141 181.007 27.746C181.372 27.478 181.555 27.0591 181.555 26.4894C181.555 25.9198 181.289 25.4339 180.758 25.0317C180.226 24.5961 179.179 24.0432 177.618 23.373C176.322 22.8034 175.06 22.2169 173.831 21.6138C172.635 20.9771 171.571 20.2064 170.641 19.3016C169.678 18.3968 168.914 17.3078 168.349 16.0344C167.784 14.761 167.502 13.2028 167.502 11.3598C167.502 9.88536 167.784 8.47795 168.349 7.13757C168.914 5.76367 169.761 4.54057 170.89 3.46826C171.987 2.42945 173.365 1.60847 175.027 1.00529C176.721 0.368607 178.698 0.0502648 180.957 0.0502648C182.917 0.0502648 184.794 0.201059 186.588 0.502646C188.382 0.770724 190.209 1.27337 192.07 2.01058C192.468 2.17813 192.734 2.39594 192.867 2.66402C193 2.89859 193.033 3.30071 192.967 3.87037L192.319 11.1587C192.253 12.1305 191.738 12.3818 190.774 11.9127C189.279 11.209 187.718 10.6896 186.09 10.3545C184.495 10.0194 183.116 9.85185 181.954 9.85185C180.99 9.85185 180.193 9.98589 179.561 10.254C178.963 10.522 178.664 11.0247 178.664 11.7619C178.664 12.164 178.797 12.5159 179.063 12.8175C179.329 13.119 179.728 13.4206 180.259 13.7222C180.791 14.0238 181.455 14.3589 182.253 14.7275C183.05 15.0626 183.963 15.4982 184.993 16.0344C186.09 16.6041 187.103 17.1905 188.033 17.7937C188.963 18.3968 189.777 19.1005 190.475 19.9048C191.173 20.7425 191.721 21.731 192.12 22.8704C192.518 24.0097 192.718 25.3836 192.718 26.9921C192.718 28.7681 192.419 30.343 191.821 31.7169C191.223 33.0908 190.392 34.2302 189.329 35.1349C188.233 36.0732 186.937 36.7769 185.442 37.246C183.947 37.7487 182.302 38 180.508 38C178.249 38 176.189 37.8157 174.329 37.4471C172.502 37.112 170.857 36.6931 169.395 36.1905C168.831 35.9894 168.465 35.7884 168.299 35.5873C168.133 35.3527 168.083 35.0009 168.15 34.5317L169.545 27.3439C169.711 26.3721 170.292 26.0706 171.289 26.4392Z" fill="#222222"/>
</svg>

<svg xmlns="http://www.w3.org/2000/svg" width="193" height="38" fill="none" viewBox="0 0 193 38"><path fill="#222" d="m11.267 24.58.2 10.656c.032.971-.117 1.591-.45 1.86-.298.267-.763.401-1.395.401H2.496c-.764 0-1.279-.15-1.545-.452-.265-.302-.415-.938-.448-1.91L.005 3.167c-.034-.972.116-1.642.448-2.01.365-.403.98-.604 1.844-.604H21.98c.698 0 1.213.134 1.545.402.332.268.498.754.498 1.458v6.434c0 .67-.166 1.156-.498 1.457-.332.268-.847.402-1.545.402H11.018l.05 4.223h9.169c.698 0 1.213.134 1.545.402.332.268.498.754.498 1.457v5.932c0 .703-.166 1.19-.498 1.457-.332.268-.847.402-1.545.402h-8.97Zm27.1-7.038c2.093-.134 3.571-.52 4.435-1.156.864-.636 1.296-1.709 1.296-3.217 0-.837-.166-1.524-.499-2.06a3.141 3.141 0 0 0-1.245-1.307c-.532-.268-1.163-.42-1.894-.453a10.508 10.508 0 0 0-2.243.151l.15 8.042ZM27.005 4.825c-.034-.67-.05-1.206-.05-1.608.033-.436.133-.788.299-1.056.133-.234.382-.418.747-.553.4-.167.947-.351 1.645-.552C31.074.686 32.669.402 34.43.2a32.606 32.606 0 0 1 5.432-.15c1.827.1 3.605.401 5.332.904 1.728.47 3.273 1.173 4.635 2.111 1.328.972 2.392 2.212 3.189 3.72.83 1.508 1.246 3.35 1.246 5.529 0 1.675-.166 3.15-.499 4.423-.332 1.24-.78 2.329-1.345 3.267a12.344 12.344 0 0 1-2.043 2.463 15.116 15.116 0 0 1-2.492 1.86l4.934 7.841c.498.838.63 1.508.398 2.01-.232.47-.648.822-1.246 1.056l-5.232 1.96c-.93.37-1.628.42-2.093.152-.432-.235-.814-.637-1.146-1.207l-4.884-8.947v8.043c0 .87-.133 1.457-.399 1.759-.265.335-.764.502-1.495.502h-6.777c-.698 0-1.18-.167-1.445-.502-.266-.302-.416-.888-.449-1.76l-1.046-30.41Zm31.102-2.01c0-.871.133-1.458.398-1.76.3-.335.798-.502 1.495-.502h7.177c.73 0 1.212.167 1.445.503.266.301.415.888.448 1.759l.499 32.42c.033.872-.1 1.458-.4 1.76-.265.335-.763.502-1.494.502h-7.176c-.698 0-1.18-.167-1.445-.502-.266-.302-.416-.888-.449-1.76l-.498-32.42Zm26.701 21.01.1 3.519h9.568c.697 0 1.212.15 1.545.452.332.268.498.738.498 1.408v6.383c0 .704-.166 1.19-.498 1.458-.333.302-.848.452-1.545.452h-18.19c-.863 0-1.445-.2-1.744-.603-.299-.368-.465-1.055-.498-2.06l-.449-31.667c-.033-.972.117-1.642.449-2.01.365-.403.98-.604 1.844-.604H96.07c.698 0 1.213.134 1.545.402.333.268.499.754.499 1.458v6.434c0 .67-.166 1.156-.499 1.457-.332.268-.847.402-1.545.402H84.56l.05 2.966h9.717c.698 0 1.213.134 1.545.402.332.268.499.754.499 1.458v6.434c0 .703-.167 1.19-.499 1.457-.332.268-.847.402-1.545.402h-9.518Zm28.172-3.217.249 14.628c.033.804-.083 1.373-.349 1.708-.233.37-.748.553-1.545.553h-7.375c-.831 0-1.362-.184-1.595-.553-.199-.335-.316-.904-.349-1.709l-.498-32.068c-.033-.972.116-1.642.448-2.01.366-.403.98-.604 1.844-.604h6.13c.996 0 1.678.1 2.043.301.399.168.747.587 1.047 1.257l7.674 15.733V3.167c0-.972.166-1.642.498-2.01.332-.403.93-.604 1.794-.604h6.13c.864 0 1.462.201 1.794.603.332.369.498 1.039.498 2.01v31.667c0 1.006-.166 1.693-.498 2.061-.299.402-.881.603-1.744.603h-4.735c-.963 0-1.694-.184-2.192-.553-.499-.368-.997-1.005-1.495-1.91L112.98 20.61Zm23.157-17.291c0-.971.149-1.625.448-1.96.299-.368 1.014-.586 2.143-.653a51.659 51.659 0 0 1 6.03-.05c2.06.1 4.037.368 5.93.804a23.474 23.474 0 0 1 5.332 1.91 14.965 14.965 0 0 1 4.336 3.267c1.229 1.34 2.193 2.966 2.89 4.876.731 1.91 1.097 4.155 1.097 6.735 0 3.15-.565 5.931-1.695 8.344-1.129 2.38-2.774 4.373-4.933 5.981-2.193 1.609-4.884 2.815-8.073 3.62-3.19.837-6.844 1.256-10.964 1.256-1.428 0-2.143-.804-2.143-2.413l-.398-31.717ZM147.25 26.64c.93-.234 1.777-.52 2.541-.854a5.765 5.765 0 0 0 1.944-1.508c.531-.603.947-1.39 1.246-2.363.299-.971.448-2.211.448-3.72 0-1.273-.166-2.378-.498-3.317-.332-.938-.798-1.709-1.396-2.312a5.275 5.275 0 0 0-2.093-1.307c-.797-.301-1.661-.419-2.591-.352l.399 15.733Zm24.039-.2c.565.2 1.179.401 1.844.602.698.201 1.412.386 2.143.553a26.09 26.09 0 0 0 2.143.402c.731.1 1.412.151 2.043.151.664 0 1.179-.134 1.545-.402.365-.268.548-.687.548-1.257 0-.57-.266-1.055-.797-1.457-.532-.436-1.579-.989-3.14-1.659a99.17 99.17 0 0 1-3.787-1.76 13.933 13.933 0 0 1-3.19-2.311 9.977 9.977 0 0 1-2.292-3.268c-.565-1.273-.847-2.831-.847-4.674 0-1.475.282-2.882.847-4.222.565-1.374 1.412-2.597 2.541-3.67 1.097-1.039 2.475-1.86 4.137-2.463 1.694-.636 3.671-.955 5.93-.955 1.96 0 3.837.151 5.631.453 1.794.268 3.621.77 5.482 1.508.398.167.664.385.797.653.133.235.166.637.1 1.206l-.648 7.289c-.066.971-.581 1.223-1.545.754a20.808 20.808 0 0 0-4.684-1.559c-1.595-.335-2.974-.502-4.136-.502-.964 0-1.761.134-2.393.402-.598.268-.897.77-.897 1.508 0 .402.133.754.399 1.056.266.301.665.603 1.196.904.532.302 1.196.637 1.994 1.005.797.336 1.71.771 2.74 1.307a36.5 36.5 0 0 1 3.04 1.76c.93.603 1.744 1.306 2.442 2.11.698.838 1.246 1.827 1.645 2.966.398 1.14.598 2.514.598 4.122 0 1.776-.299 3.351-.897 4.725-.598 1.374-1.429 2.513-2.492 3.418-1.096.938-2.392 1.642-3.887 2.111-1.495.503-3.14.754-4.934.754-2.259 0-4.319-.184-6.179-.553-1.827-.335-3.472-.754-4.934-1.257-.564-.2-.93-.402-1.096-.603-.166-.234-.216-.586-.149-1.055l1.395-7.188c.166-.972.747-1.273 1.744-.905Z"/></svg>
